X:1
T:1.
M:3/4
Q:"Vivace"
L:1/4
K:Gm
Dzz | Czz | B,G,z/G, | G,2.G | A2G- | GG,2 | MA,3- | A,zz ||
M:C
Q:"Grave"
z4 | zD2C | B,A,G,>G | ADDD | =EDA,A- | AG/F/_Ee |
A^FBG | c=FFD | DGGc | dGAB/B,/ | CcAD | =E2D2 | =B4 |]
